static/logos/bubble-glyph-color.svg

<svg width="47" height="50" viewBox="0 0 47 50" fill="none" xmlns="http://www.w3.org/2000/svg">
<g clip-path="url(#clip0_1_3342)">
<path d="M28.4448 13.0424C23.9685 13.0424 19.5421 14.9626 16.1755 18.7531V0.0997314H9.49219V31.5087C9.49219 41.7082 17.759 49.975 27.9585 49.975C38.158 49.975 46.4248 41.7082 46.4248 31.5087C46.4248 21.3092 38.6318 13.0424 28.4448 13.0424ZM27.9585 42.8553C21.6867 42.8553 16.6119 37.7681 16.6119 31.5087C16.6119 25.2494 21.6992 20.1621 27.9585 20.1621C34.2303 20.1621 39.3051 25.2494 39.3051 31.5087C39.3051 37.7681 34.2303 42.8553 27.9585 42.8553Z" fill="black"/>
<path d="M4.64172 49.9626C7.16212 49.9626 9.20531 47.9195 9.20531 45.399C9.20531 42.8786 7.16212 40.8354 4.64172 40.8354C2.12132 40.8354 0.078125 42.8786 0.078125 45.399C0.078125 47.9195 2.12132 49.9626 4.64172 49.9626Z" fill="#0000FF"/>
</g>
<defs>
<clipPath id="clip0_1_3342">
<rect width="46.5087" height="50" fill="white"/>
</clipPath>
</defs>
</svg>

<svg xmlns="http://www.w3.org/2000/svg" width="60.16" height="64" fill="none" viewBox="0 0 47 50"><g clip-path="url(#a)"><path fill="#000" d="M28.445 13.042c-4.477 0-8.903 1.92-12.27 5.711V.1H9.492v31.409c0 10.2 8.267 18.466 18.466 18.466 10.2 0 18.467-8.267 18.467-18.466 0-10.2-7.793-18.467-17.98-18.467Zm-.486 29.813c-6.272 0-11.347-5.087-11.347-11.346 0-6.26 5.087-11.347 11.347-11.347 6.271 0 11.346 5.087 11.346 11.347S34.23 42.855 27.96 42.855Z"/><path fill="#00F" d="M4.642 49.963a4.564 4.564 0 1 0 0-9.127 4.564 4.564 0 0 0 0 9.127Z"/></g><defs><clipPath id="a"><path fill="#fff" d="M0 0h46.509v50H0z"/></clipPath></defs></svg>
